!!!OTL: Christus Humanitatem
**kern
*staff1
=--
*clefG2
*k[]
0ee
2dd
2ee
2dd
2b
1cc
1b
=-
*met(c)
*M4/4
1ff
2dd
2cc
2ff
2ee
2cc
2dd
=-
2ee
2.dd
4cc
1cc
2b
1cc
!!linebreak:original
=-
1cc
2ff
2ee
2dd
2dd
2cc
2cc
=-
2a
2a
2.cc
4b
2a
2b
2a
2cc
=-
2f
2.g
4f
1f
2e
0f
=-
!!linebreak:original
1ff
2dd
2cc
2ff
2ee
2cc
2dd
=-
2ee
2.dd
4cc
1cc
2b
1cc
=-
1cc
2ff
2ee
2dd
2dd
2cc
2cc
=-
2a
2a
2.cc
4b
2a
2b
2a
2cc
=-
2f
2.g
4f
1f
2e
1f
=-
!!linebreak:original
1cc
2a
2a
1cc
1ee
=-
2ff
2ee
1cc
1ff
=-
2ee
2ff
2gg
2ff
2ee
2dd
2cc
2ff
=-
2ee
2.dd
4cc
1cc
2b
1cc
!!linebreak:original
=-
1cc
2ff
2ee
2dd
2dd
2cc
2cc
=-
2a
2a
2.cc
4b
2a
2b
2a
2cc
=-
2f
2.g
4f
1f
2e
0f
=-=
*-
!!title: @{OTL}, @{GTL}, ed. @{ENC}
!!!pag:
!!!GTL: Hymnbook C
!!!EFL: 
!!!YEM: Creative Commons CC/BY/NC/SA 4.0
!!!ENC: Marcin Konik
!!!END: 2015-0m-dd
!!!EED: Marcin Konik
!!!EEV: 
!!!ONB: Encoded in vim by Marcin Konik
!!!CharacterEncoding: utf-8
!!!RDF**kern: l=long note in original notation
!!!RDF**kern: i=editorial accidental
!!muse2ps: z14jc180F
!!!COM: Anonim
!!!CDT: [?]
!!!TXO: Polish
!!!ODT: 
!!!GTL: Hymnbook C
!!!ARL: Opactwo św. Wojciecha, Staniątki 
!!!voices:	1
